X:252
T:Angel Voices, Ever Singing
%%stretchlast false
M:4/4
L:1/4
K:Bb clef=C1
"^I"[B,FBd] [B,Bdf] "^IV²"[B,Aeg] [B,Bef]/ "^I"[B,Bdf]/ | "^IV²"[B,Geb] [B,Eeg] "^V¹"[A,Fcf] "^iii¹"[F,FAd] | "^vi"[G,DB] "^ii7²"[G,EBc] "^I²"[F,FBd] "^IV"[E,EGe] | "^i"[F,FBc]2 "^V"[F,FAc]2 | "^I"[B,FBd] "^I¹"[DFBf] "^vi"[GBb] [Gdg]/ [Fdg]/ | "^II¹"[=EGcc'] "^II"[CG=ec']/ "^II7"[CG=eb]/ "^V"[Ffa] "^V¹"[A,Fcf] | "^vi¹"[B,GBg] [B,Gd]/ "^vi"[A,Gd]/ "^vi7"[G,GBf] "^II"[CGc=e] | "^i"[F,FBf] "^V"[F,FAf]/ [F,FGf]/ [F,FAf]2 | "^iii"[DAf] "^Vmaj7²"[CA=ef] "^♭iiø7"[=B,Adf] "^vi¹"[B,Gdg] | "^ii"[CGe] "^IVmaj7²"[B,Gde] "^viiø7"[A,Gce] "^V¹"[A,Fcf] | "^I"[B,Fd] "^I¹"[DFBf] "^IV"[EBeg] "^vi"[GBdb] | "^i"[FBfc']2 "^V"[FAfc'] [F,Fca] | "^I"[B,Bdb]4 |]
